icon-themes/sifr_svg/cmd/sc_starshapes.star12.svg

<svg viewBox="0 0 16 16" xmlns="http://www.w3.org/2000/svg"><g fill="#555753"><path d="m7.5097656 0-.5644531 4.0625-2.5195313-3.23828125-.8515624.49218745 1.5429687 3.8007813-3.8007813-1.5429687-.49023432.8515624 3.23437502 2.5175782-4.0605469.5644531v.9824219l4.0625.5644531-3.23632812 2.5195315.49023432.851562 3.8007813-1.542969-1.5429687 3.800782.8515624.490234 2.5195313-3.236328.5644531 4.0625h.9824219l.5644531-4.060547 2.5175784 3.234375.851562-.490234-1.542969-3.800782 3.800782 1.542969.492187-.851562-3.238281-2.5195315 4.0625-.5644531v-.9824219l-4.060547-.5644531 3.236328-2.5175782-.492187-.8515624-3.802735 1.5449218 1.544922-3.8027344-.851562-.49218745-2.5175784 3.23632815-.5644531-4.0605469zm.4902344 6a2 2 0 0 1 2 2 2 2 0 0 1 -2 2 2 2 0 0 1 -2-2 2 2 0 0 1 2-2z"/><circle cx="8" cy="8" opacity=".35" r="2"/></g></svg>

<svg xmlns="http://www.w3.org/2000/svg" viewBox="0 0 16 16">
  <path
     style="fill:#555753"
     d="M 7.5097656 0 L 6.9453125 4.0625 L 4.4257812 0.82421875 L 3.5742188 1.3164062 L 5.1171875 5.1171875 L 1.3164062 3.5742188 L 0.82617188 4.4257812 L 4.0605469 6.9433594 L 0 7.5078125 L 0 8.4902344 L 4.0625 9.0546875 L 0.82617188 11.574219 L 1.3164062 12.425781 L 5.1171875 10.882812 L 3.5742188 14.683594 L 4.4257812 15.173828 L 6.9453125 11.9375 L 7.5097656 16 L 8.4921875 16 L 9.0566406 11.939453 L 11.574219 15.173828 L 12.425781 14.683594 L 10.882812 10.882812 L 14.683594 12.425781 L 15.175781 11.574219 L 11.9375 9.0546875 L 16 8.4902344 L 16 7.5078125 L 11.939453 6.9433594 L 15.175781 4.4257812 L 14.683594 3.5742188 L 10.880859 5.1191406 L 12.425781 1.3164062 L 11.574219 0.82421875 L 9.0566406 4.0605469 L 8.4921875 0 L 7.5097656 0 z M 8 6 A 2 2 0 0 1 10 8 A 2 2 0 0 1 8 10 A 2 2 0 0 1 6 8 A 2 2 0 0 1 8 6 z "
     />
  <circle
     style="opacity:0.35;fill:#555753"
     cx="8"
     cy="8"
     r="2" />
</svg>
